lib/logo_updates/nrk-logo-nrk-p1-title-below.svg

<svg width="120" height="104" viewBox="0 0 120 104" fill="none" xmlns="http://www.w3.org/2000/svg">
<path d="M0 43V1.00381H13.7802V43H0ZM32.5283 7.68773L40.4532 43H25.3721L15.9092 1.00381H24.3676C26.3072 0.978642 28.1892 1.66237 29.6607 2.92636C31.1347 4.13734 32.1473 5.81844 32.5283 7.68773ZM42.5233 43V1.00381H56.3035V43H42.5233ZM66.7116 16.9743C65.2267 16.9888 63.7656 16.6003 62.4839 15.8504C61.2193 15.1194 60.1688 14.0689 59.438 12.8041C58.6872 11.5222 58.2986 10.0607 58.3134 8.57511C58.2964 7.09861 58.6853 5.64583 59.438 4.3755C60.1766 3.12447 61.2259 2.08533 62.4839 1.35882C63.766 0.609758 65.2269 0.221301 66.7116 0.234844C68.1877 0.218947 69.6399 0.607751 70.9108 1.35882C72.1562 2.09169 73.1943 3.12996 73.9271 4.3755C74.6789 5.64618 75.0677 7.09873 75.0517 8.57511C75.0655 10.0605 74.6769 11.5218 73.9271 12.8041C73.202 14.0633 72.1627 15.113 70.9108 15.8504C69.6398 16.6029 68.1866 16.9918 66.7097 16.9743H66.7116ZM77.1807 43V1.00381H90.9621V43H77.1807ZM108.408 23.9538C108.447 23.9946 108.742 24.4776 109.295 25.403C109.848 26.3283 110.567 27.5114 111.454 28.952C112.341 30.392 113.277 31.9199 114.262 33.536C115.247 35.1521 116.174 36.6803 117.043 38.1202C117.908 39.5602 118.894 41.1867 120 43H104.859C103.912 41.4621 103.055 40.0721 102.286 38.83C101.517 37.5878 100.7 36.2471 99.8334 34.8077C98.9653 33.3698 98.1071 31.9699 97.2587 30.6081C96.4103 29.2464 95.6813 28.0536 95.0714 27.0297C94.459 26.0051 94.0348 25.3149 93.7989 24.9594C93.2139 24.0771 92.8677 23.058 92.7944 22.0019C92.853 20.9883 93.1791 20.0084 93.7397 19.1619C93.9762 18.7676 94.41 18.0675 95.0409 17.062C95.6717 16.0564 96.411 14.8637 97.2587 13.4835C98.1064 12.1034 98.9647 10.6936 99.8334 9.25431C100.702 7.81501 101.519 6.46432 102.286 5.20247C103.056 3.94193 103.914 2.54205 104.859 1.00285H120L108.289 20.1082C107.926 20.6755 107.722 21.3292 107.697 22.0019C107.736 22.7081 107.983 23.3871 108.406 23.9538H108.408Z" fill="white"/>
<path d="M28.5084 66.4468C27.7815 65.3248 26.8481 64.351 25.758 63.5772C24.5429 62.7266 23.1935 62.0868 21.7659 61.6845C20.0328 61.2061 18.2402 60.9774 16.4426 61.0053H0V102.999H6.21039V87.9168H16.9157C19.332 87.9534 21.7164 87.3624 23.8358 86.2015C25.8664 85.0758 27.5529 83.4195 28.7153 81.4097C29.9611 79.1916 30.5845 76.678 30.5194 74.1348C30.5247 72.7604 30.3658 71.3903 30.0462 70.0537C29.7391 68.7738 29.2192 67.5546 28.5084 66.4468ZM23.0079 79.1927C22.2131 80.44 21.0429 81.403 19.666 81.9431C17.9953 82.5754 16.2174 82.8767 14.4316 82.8303H6.21039V66.151H15.2597C16.9881 66.0857 18.7085 66.4193 20.2872 67.126C21.5431 67.7327 22.5698 68.7283 23.2149 69.965C23.8984 71.352 24.2333 72.8848 24.1908 74.4305C24.2591 76.0983 23.8487 77.7507 23.0079 79.1927Z" fill="white"/>
<path d="M45.8383 61.0053C44.8913 61.4785 43.994 61.9418 43.1462 62.3953C42.2985 62.8488 41.4707 63.2726 40.663 63.6669C39.8534 64.0612 39.0349 64.4555 38.2075 64.8499C37.3801 65.2442 36.5323 65.599 35.6642 65.9144C34.7967 66.2312 33.8705 66.5463 32.8854 66.8598L34.1855 71.8872C35.3684 71.5323 36.4429 71.1775 37.409 70.8226C38.3554 70.4765 39.2833 70.0817 40.1889 69.6397C41.0768 69.206 41.9639 68.7327 42.8505 68.2201L42.881 68.2025V103H49.0312V61.0063L45.8383 61.0053Z" fill="white"/>
</svg>

<svg xmlns="http://www.w3.org/2000/svg" viewBox="0 0 120 104"><path fill="#fff" d="M0 43V1.004h13.78V43H0ZM32.528 7.688 40.453 43h-15.08L15.908 1.004h8.459a7.965 7.965 0 0 1 5.293 1.922 8.31 8.31 0 0 1 2.867 4.762ZM42.523 43V1.004h13.78V43h-13.78Zm24.189-26.026a8.213 8.213 0 0 1-4.228-1.124 8.336 8.336 0 0 1-3.046-3.046 8.206 8.206 0 0 1-1.125-4.229 8.056 8.056 0 0 1 1.125-4.2 8.437 8.437 0 0 1 3.046-3.016A8.232 8.232 0 0 1 66.712.235a8.083 8.083 0 0 1 4.199 1.124 8.503 8.503 0 0 1 3.016 3.016 8.075 8.075 0 0 1 1.125 4.2 8.226 8.226 0 0 1-1.125 4.23 8.4 8.4 0 0 1-3.016 3.045 8.059 8.059 0 0 1-4.201 1.124h.002ZM77.18 43V1.004h13.781V43H77.181Zm31.227-19.046c.039.04.334.524.887 1.449.553.925 1.272 2.108 2.159 3.549a1143.28 1143.28 0 0 1 5.589 9.168A854.89 854.89 0 0 0 120 43h-15.141c-.947-1.538-1.804-2.928-2.573-4.17a382.214 382.214 0 0 1-2.453-4.022 351.934 351.934 0 0 0-2.574-4.2 213.445 213.445 0 0 1-2.188-3.578 62.753 62.753 0 0 0-1.272-2.07 6.119 6.119 0 0 1-1.005-2.958 5.744 5.744 0 0 1 .946-2.84c.236-.394.67-1.095 1.3-2.1.632-1.006 1.371-2.198 2.219-3.579.847-1.38 1.706-2.79 2.574-4.229.869-1.439 1.686-2.79 2.453-4.052.77-1.26 1.628-2.66 2.573-4.2H120l-11.711 19.106a3.773 3.773 0 0 0-.592 1.894c.039.706.286 1.385.709 1.952h.002ZM28.508 66.447a10.561 10.561 0 0 0-2.75-2.87 13.208 13.208 0 0 0-3.992-1.892 18.904 18.904 0 0 0-5.323-.68H0V103h6.21V87.917h10.706c2.416.036 4.8-.555 6.92-1.716a12.814 12.814 0 0 0 4.88-4.791 14.118 14.118 0 0 0 1.803-7.275 17.263 17.263 0 0 0-.473-4.081 11.76 11.76 0 0 0-1.538-3.607Zm-5.5 12.746a6.989 6.989 0 0 1-3.342 2.75c-1.67.632-3.449.934-5.234.887H6.21V66.151h9.05a11.264 11.264 0 0 1 5.027.975 6.482 6.482 0 0 1 2.928 2.839 9.51 9.51 0 0 1 .976 4.465 8.744 8.744 0 0 1-1.183 4.763ZM45.838 61.005c-.947.473-1.844.937-2.692 1.39a75.27 75.27 0 0 1-2.483 1.272c-.81.394-1.628.788-2.455 1.183-.828.394-1.676.749-2.544 1.064-.867.317-1.794.632-2.779.946l1.3 5.027a56.397 56.397 0 0 0 3.224-1.064c.946-.346 1.874-.741 2.78-1.183a43.2 43.2 0 0 0 2.661-1.42l.031-.017V103h6.15V61.006h-3.193Z"/></svg>
